X: 21163
T: DUNKELD HOUSE
C: Neil Gow.
Q: "Slow."
%R: jig
B: W. Hamilton "Universal Tune-Book" Vol. 2 Glasgow 1846 p.116 #3
S: http://s3-eu-west-1.amazonaws.com/itma.dl.printmaterial/book_pdfs/hamiltonvol2web.pdf
Z: 2016 John Chambers <jc:trillian.mit.edu>
M: 6/8
L: 1/8
K: Em
% - - - - - - - - - - - - - - - - - - - - - - - - -
B, |\
EFE G2E | B2E G2E | F2D AFD | dAD AFD |\
EFE G2E | B2E G2E | B/^c/dB AFA | BGE E2 :|
a |\
g/a/bg ege | g/a/bg ege | f/g/af dfd | f/g/af dfd |\
g/a/bg ege | g/a/bg ege | g/a/bg f/g/af | gee e2a |
g/a/bg ege | g/a/bg ege | f/g/af dfd | f/g/af dfd |\
e/f/ge f/g/af | g/a/bg e/f/ge | d/e/fd F/G/AF | BGE E2 |]
% - - - - - - - - - - - - - - - - - - - - - - - - -

%%sep 1 1 500
%%sep 1 1 500

